X: 597
T: Dîvâne Aşık Gibi
C: Hasan Tunç
O: Turkey
F: http://compmusic.upf.edu/node/140
N: hicaz--turku--turkaksagi--divane_asik--macka
N: makam= hicaz
N: form= turku
N: usul= turkaksagi = 5/8
M: 5/8
L: 1/16
K: C _7/8B ^f ^c 
Q: 1/4=126
%%MIDI tuningsystem comma53
c2d2 e2=f4 | =f2 {g}fed4d2  | d2d2 d2d4 | \
w:  Dî vâ ne  â  |  şık  *  gi *  bi  de   |  do la şı rım   | 
d3/2e/ dcB4A2  | c2d2 e2=f4 | 
w:  yol *  lar *  da    |  Dî vâ ne  â  | 
=f2 {g}fed4d2  | d2d2 d2d4 | d3/2e/ dcB4A2  | \
w:  şık  *  gi *  bi  de   |  do la şı rım   |  yol *  lar *  da    | 
c2d2 d2d4 | de dcB4A2  | 
w:  Kız  se nun  se  |  be *  bi *  ne   | 
e2d2 d2d4 | d3/2e/ dcB4A2  | A2A2 B2c4 | \
w:  yâr  se nun  se  |  be *  bi *  ne   |  kal dım_ İs tan  | 
B4A2 A4  | A2A2 A2A4 | 
w:  bul lar da   |  kal dım_ İs tan  | 
A4{G}z4z2  | c2d2 d2d4 | de dcB4A2  | e2d2 d2d4 | \
w:  bul    |  Kız  se nun  se  |  be *  bi *  ne   |  yâr  se nun  se  | 
d3/2e/ dcB4A2  | 
w:  be *  bi *  ne   | 
A2A2 B2c4 | B4A2 A4  | A2A2 A2A4 | A4{G}z4z2  | \
w:  kal dım_ İs tan  |  bul lar da   |  kal dım_ İs tan  |  bul    | 
c2d2 e2=f4 | =f2 {g}fed4d2  | 
w:  Dî vâ ne  â  |  şık  *  gi *  bi  de   | 
d2d2 d2d4 | d3/2e/ dcB4A2  | c2d2 e2=f4 | \
w:  do la şı rım   |  yol *  lar *  da    |  Dî vâ ne  â  | 
=f2 {g}fed4d2  | d2d2 d2d4 | 
w:  şık  *  gi *  bi  de   |  do la şı rım   | 
d3/2e/ dcB4A2  | c2d2 d2d4 | de dcB4A2  | \
w:  yol *  lar *  da    |  Kız  se nun  se  |  be *  bi *  ne   | 
e2d2 d2d4 | d3/2e/ dcB4A2  | 
w:  yâr  se nun  se  |  be *  bi *  ne   | 
A2A2 B2c4 | B4A2 A4  | A2A2 A2A4 | A4{G}z4z2  | \
w:  kal dım_ İs tan  |  bul lar da   |  kal dım_ İs tan  |  bul    | 
c2d2 d2d4 | de dcB4A2  | 
w:  Kız  se nun  se  |  be *  bi *  ne   | 
e2d2 d2d4 | d3/2e/ dcB4A2  | A2A2 B2c4 | \
w:  yâr  se nun  se  |  be *  bi *  ne   |  kal dım_ İs tan  | 
B4A2 A4  | A2A2 A2A4 | 
w:  bul lar da   |  kal dım_ İs tan  | 
A4{G}z4z2  | |


